X: 579
T: Accordion Crimes
R: reel
M: 4/4
K: Gmajor
|:D2GD ADGD|cDBD ADGE|D2GD ADGD|d3 (d d)B AG|
D2GD ADGD|cDBD ADGE|d3 (d d)B AG|1 AGAB G3 E:|2 AGAB GABd||
|:g2 G(f f)G e2|d3 (d d)B AG|d3 (d d)B AG|AGAB A2 df|
g2 G(f f)G e2|d3 (d d)B AG|d3 (d d)B AG|1 AGAB GABd:|2 AGAB G2 GE||

